X:1
T:God Loves Me Dearly
T:God Loves Me Dearly
T:German tune
T:August D. Rische, 1852, composite translation
T:Public Domain Courtesy of the Cyber Hymnal™
C:German tune
Z:Public Domain
Z:Courtesy of the Cyber Hymnal™
%%score ( 1 2 ) ( 3 4 )
L:1/8
Q:1/4=92
M:3/4
K:D
V:1 treble 
V:2 treble 
V:3 bass 
V:4 bass 
V:1
 DD F | [DA]2 FA dB | [DA]2 FA BA | [DG]2 EE AA | [DF]3 ||"^Refrain" [DF]F A | GG EG GB | %7
w: 1.~God loves me|dear- ly, Grants me sal-|va- tion; God loves me|dear- ly, Loves ev- en|me.|||
w: 2.~I was in|slav- ery, Sin, death, and|dark- ness; God’s love was|wor- king To make me|free.|||
w: 3.~He sent forth|Je- sus, My dear Re-|deem- er, He sent forth|Je- sus And set me|free.|There- fore I’ll|say a- gain, God loves me|
w: 4.~Je- sus, my|Sav- ior, Him- self did|of- fer; Je- sus, my|Sav- ior, Paid all I|owed.|||
w: 5.~Now I will|praise You, O Love E-|ter- nal, Now I will|praise You All my life|long.|||
 [FA]2 FF FA | [DG]2 EE AA | [DF]3 |] %10
w: |||
w: |||
w: dear- ly, God loves me|dear- ly, Loves ev- en|me.|
w: |||
w: |||
V:2
 DD F | x2 D2 D2 | x2 D2 D2 | x2 D2 C2 | x3 || x D2 | D2 C2 E2 | x2 D2 D2 | x2 D2 C2 | x3 |] %10
V:3
 D,D, F, | [D,F,]2 A,2 B,G, | [F,A,]2 A,2 G,[F,A,] | [E,B,]2 A,2 [A,,A,]2 | [D,A,]3 || [D,A,] A,2 | %6
 [E,B,]2 A,2 [C,A,]2 | [D,D]2 [D,A,]2 [B,,B,]2 | [E,B,]2 A,2 [A,,A,]2 | [D,A,]3 |] %10
V:4
 D,D, F, | x2 D,F, G,2 | x2 D,F, G, x | x2 A,2 x2 | x3 || x D, F, | x2 A,2 x2 | x6 | x2 A,2 x2 | %9
 x3 |] %10

